X:1
T:Title
%%score 1 { ( 2 4 ) | ( 3 5 ) }
L:1/8
Q:1/4=60
M:3/4
K:Ab
V:1 treble nm="Voice"
V:2 treble nm="Piano"
V:4 treble 
V:3 bass 
V:5 bass 
V:1
"^Langsam" z6 | z6 | z6 | z6 | z2 z2!p! c2 | c2 A3 G | F2 A2 d2 | B2 c2 d2 | G4 G2 | A2 c2 f2 | %10
 =e2 =d2 c2 | =B3 c =d2 | c4 z2 |!p! d4 B2 | c3 B A2 | B4 G2 | A4 z2 | z6 | z6 | z6 | z6 | %21
!p! c2 c c c c |!>(! c6-!>)! | c z z2 z2 | z2 c2 c c | c4!>(! B G | F4!>)! z2 | z6 | z6 | %29
 !fermata!z6 |] %30
V:2
!p! [A,CF] z [CFA] z [C=EB] z | [CFc] z (3[CFc][CFc][CFc] [CFc]2 | !>![CFA]4 !>![C=EB]2 | %3
 !>![CFc] z (3[CFc][CFc][CFc] [CFc]2 | !>![CFA]4 !>![C=EB]2 | [CFc] z (3[CFc][CFc][CFc] [CFc]2 | %6
 !>![CFc]4 !>![DFd]2 | !>![DFB]2 !>![DFc]2 !>![DFd]2 | !>![B,=EG]4 !>![B,EG]2 | %9
 [A,FA]2 [CFc]2 [CFc]2 | [C=Ec]2 [=Dc=d]2 [Ece]2 | [=D=B=d]3 [=Ec=e] [Fdf]2 | %12
 [=Ec=e]4!<(! [CEc]2!<)! |!p! ([DFd]4 [B,DB]2) | ([CFc]3 [B,FB] [A,FA]2) | ([B,GB]4 [G,=EG]2) | %16
 [A,FA]4!<(! [CAc]2!<)! | ([Fdf]4 [DBd]2) |!>(! ([Cc]3 [B,B] [A,A]2)!>)! | ([DBd]4 [B,GB]2) | %20
!p! (c2 cc cc | c6- | c2 cc cc |!pp! c2 cc cc | c2 cc cc |!>(! c4 BG) | [A,F]2 z2 [A,F]2 | %27
 [A,F]2 z2 [A,F]2 | [A,F]2 z2 z2 | !fermata![A,F]6 |] %30
V:3
 [F,,C,] z [F,,C,] z [G,,C,] z | [A,,C,] z (3[A,,C,][A,,C,][A,,C,] [A,,C,]2 | [F,,C,]4 [G,,C,]2 | %3
 [A,,C,] z (3[A,,C,][A,,C,][A,,C,] [A,,C,]2 | [F,,C,]4 [G,,C,]2 | %5
 [A,,C,] z (3[A,,C,][A,,C,][A,,C,] [A,,C,]2 | [A,,C,]4 [B,,D,]2 | [D,,D,]2 [C,,C,]2 [B,,,B,,]2 | %8
 [C,,C,]4 [C,,C,]2 | [F,,C,]2 [A,,C,]2 [A,,C,]2 | [G,,C,]2 [G,,C,]2 [G,,C,]2 | [G,,G,]4 [G,,G,]2 | %12
 [C,G,]4 [C,,C,]2 |!ped! (D,,F,, B,,D, F,2)!ped-up! |!ped! (A,,C, F,G, A,2)!ped-up! | %15
!ped! (C,,G,, B,,D, C,2)!ped-up! |!ped! (F,,,C,, F,,G,, A,,2)!ped-up! | %17
!ped! (D,,F,, B,,D, F,2)!ped-up! |!ped! (A,,,C,, F,,G,, A,,2)!ped-up! | %19
!ped! (B,,,F,, B,,D, F,2)!ped-up! |!ped! C,,2 z2 C,,2!ped-up! | [C,=E,B,]2 z2 [C,E,B,]2 | %22
 [C,F,A,]2 z2 [C,F,A,]2 | [C,=E,B,]2 z2 [C,E,B,]2 | [C,F,A,]2 z2 [C,F,A,]2 | %25
!ped! !arpeggio![C,G,B,]6!ped-up! |!ped! z2 C,2 C,C,!ped-up! |!ped! (C,2 C,C, C,C,!ped-up! | %28
 C,2) z2 z2 | !fermata!C,6 |] %30
V:4
 x6 | x6 | x6 | x6 | x6 | x6 | x6 | x6 | x6 | x6 | x6 | x6 | x6 | x6 | x6 | x6 | x6 | x6 | F6 | %19
 x6 | [CG]6- | [CG]2 [CG][CG] [CG][CG] | [CA]6- | [CA]2 [CG][CG] [CG][CG] | %24
 [CA]2 [CA][CA] [CA][CA] | [C=E]6 | x6 | x6 | x6 | x6 |] %30
V:5
 x6 | x6 | x6 | x6 | x6 | x6 | x6 | x6 | x6 | x6 | x6 | x6 | x6 | x6 | x6 | x6 | x6 | x6 | x6 | %19
 x6 | x6 | x6 | x6 | x6 | x6 | x6 | F,,6- | F,,6 | F,,2 z2 z2 | F,,6 |] %30

